assets/notallowed.svg

<?xml version="1.0" encoding="UTF-8" standalone="no"?>
<!-- Generator: Adobe Illustrator 18.0.0, SVG Export Plug-In . SVG Version: 6.00 Build 0)  -->

<svg
   version="1.1"
   id="Layer_1"
   x="0px"
   y="0px"
   viewBox="0 0 28 40"
   enable-background="new 0 0 28 40"
   xml:space="preserve"
   sodipodi:docname="notallowed.svg"
   inkscape:version="1.2.2 (732a01da63, 2022-12-09)"
   xmlns:inkscape="http://www.inkscape.org/namespaces/inkscape"
   xmlns:sodipodi="http://sodipodi.sourceforge.net/DTD/sodipodi-0.dtd"
   xmlns:xlink="http://www.w3.org/1999/xlink"
   xmlns="http://www.w3.org/2000/svg"
   xmlns:svg="http://www.w3.org/2000/svg"><defs
   id="defs47" /><sodipodi:namedview
   id="namedview45"
   pagecolor="#505050"
   bordercolor="#ffffff"
   borderopacity="1"
   inkscape:showpageshadow="0"
   inkscape:pageopacity="0"
   inkscape:pagecheckerboard="1"
   inkscape:deskcolor="#505050"
   showgrid="false"
   inkscape:zoom="13.375"
   inkscape:cx="13.981308"
   inkscape:cy="10.46729"
   inkscape:window-width="1366"
   inkscape:window-height="715"
   inkscape:window-x="-8"
   inkscape:window-y="-8"
   inkscape:window-maximized="1"
   inkscape:current-layer="Layer_1" />
<g
   id="g42"
   transform="translate(-4,-2.4)">
	<defs
   id="defs3">
		<rect
   id="SVGID_1_"
   width="28"
   height="40"
   x="0"
   y="0" />
	</defs>
	<clipPath
   id="SVGID_2_">
		<use
   xlink:href="#SVGID_1_"
   overflow="visible"
   id="use5" />
	</clipPath>
	<g
   clip-path="url(#SVGID_2_)"
   id="g36">
		<defs
   id="defs9">
			<rect
   id="SVGID_3_"
   width="28"
   height="40"
   x="0"
   y="0" />
		</defs>
		<clipPath
   id="SVGID_4_">
			<use
   xlink:href="#SVGID_3_"
   overflow="visible"
   id="use11" />
		</clipPath>
		<g
   opacity="0.18"
   clip-path="url(#SVGID_4_)"
   id="g32">
			<g
   id="g30">
				<defs
   id="defs15">
					<rect
   id="SVGID_5_"
   x="4"
   y="16"
   width="19"
   height="19" />
				</defs>
				<clipPath
   id="SVGID_6_">
					<use
   xlink:href="#SVGID_5_"
   overflow="visible"
   id="use17" />
				</clipPath>
				<g
   clip-path="url(#SVGID_6_)"
   id="g28">
					<defs
   id="defs21">
						<rect
   id="SVGID_7_"
   x="4"
   y="16"
   width="19"
   height="19" />
					</defs>
					<clipPath
   id="SVGID_8_">
						<use
   xlink:href="#SVGID_7_"
   overflow="visible"
   id="use23" />
					</clipPath>
					<path
   clip-path="url(#SVGID_8_)"
   fill="none"
   stroke="#231f20"
   d="m 13.5,16.5 c -5,0 -9,4 -9,9 0,5 4,9 9,9 5,0 9,-4 9,-9 0,-5 -4,-9 -9,-9 z m 0,15 c -3.3,0 -6,-2.7 -6,-6 0,-1.1 0.3,-2.2 0.8,-3 l 8.2,8.2 c -0.8,0.5 -1.9,0.8 -3,0.8 z m 5.3,-3.1 -8.2,-8.2 c 0.9,-0.5 1.9,-0.8 3.1,-0.8 3.3,0 6,2.7 6,6 -0.1,1.1 -0.4,2.2 -0.9,3 z"
   id="path26" />
				</g>
			</g>
		</g>
		<path
   clip-path="url(#SVGID_4_)"
   fill="#ffffff"
   d="M 13.5,17 C 8.8,17 5,20.8 5,25.5 5,30.2 8.8,34 13.5,34 18.2,34 22,30.2 22,25.5 22,20.8 18.2,17 13.5,17 m 3.3,14.1 C 15.8,31.7 14.7,32 13.5,32 9.9,32 7,29.1 7,25.5 7,24.3 7.3,23.2 7.9,22.2 l 0.3,-0.6 9.1,9.1 z m 2.4,-2.4 -0.3,0.6 -9.1,-9.1 0.6,-0.3 c 1,-0.6 2.1,-0.9 3.3,-0.9 3.6,0 6.5,2.9 6.5,6.5 -0.1,1.1 -0.4,2.2 -1,3.2"
   id="path34" />
	</g>
	<polygon
   clip-path="url(#SVGID_2_)"
   fill="#ffffff"
   points="15.6,14 8.6,14 8.4,14.1 4,18.4 4,2.4 "
   id="polygon38" />
	<polygon
   clip-path="url(#SVGID_2_)"
   points="8,13.1 8.1,13 13.2,13 5,4.8 5,16 "
   id="polygon40" />
</g>
</svg>

<?xml version="1.0" encoding="utf-8"?>
<!-- Generator: Adobe Illustrator 18.0.0, SVG Export Plug-In . SVG Version: 6.00 Build 0)  -->
<!DOCTYPE svg PUBLIC "-//W3C//DTD SVG 1.1//EN" "http://www.w3.org/Graphics/SVG/1.1/DTD/svg11.dtd">
<svg version="1.1" id="Layer_1" xmlns="http://www.w3.org/2000/svg" xmlns:xlink="http://www.w3.org/1999/xlink" x="0px" y="0px"
	 viewBox="0 0 28 40" enable-background="new 0 0 28 40" xml:space="preserve">
<g>
	<defs>
		<rect id="SVGID_1_" width="28" height="40"/>
	</defs>
	<clipPath id="SVGID_2_">
		<use xlink:href="#SVGID_1_"  overflow="visible"/>
	</clipPath>
	<g clip-path="url(#SVGID_2_)">
		<defs>
			<rect id="SVGID_3_" width="28" height="40"/>
		</defs>
		<clipPath id="SVGID_4_">
			<use xlink:href="#SVGID_3_"  overflow="visible"/>
		</clipPath>
		<g opacity="0.18" clip-path="url(#SVGID_4_)">
			<g>
				<defs>
					<rect id="SVGID_5_" x="4" y="16" width="19" height="19"/>
				</defs>
				<clipPath id="SVGID_6_">
					<use xlink:href="#SVGID_5_"  overflow="visible"/>
				</clipPath>
				<g clip-path="url(#SVGID_6_)">
					<defs>
						<rect id="SVGID_7_" x="4" y="16" width="19" height="19"/>
					</defs>
					<clipPath id="SVGID_8_">
						<use xlink:href="#SVGID_7_"  overflow="visible"/>
					</clipPath>
					<path clip-path="url(#SVGID_8_)" fill="none" stroke="#231F20" d="M13.5,16.5c-5,0-9,4-9,9c0,5,4,9,9,9c5,0,9-4,9-9
						C22.5,20.5,18.5,16.5,13.5,16.5z M13.5,31.5c-3.3,0-6-2.7-6-6c0-1.1,0.3-2.2,0.8-3l8.2,8.2C15.7,31.2,14.6,31.5,13.5,31.5z
						 M18.8,28.4l-8.2-8.2c0.9-0.5,1.9-0.8,3.1-0.8c3.3,0,6,2.7,6,6C19.6,26.5,19.3,27.6,18.8,28.4z"/>
				</g>
			</g>
		</g>
		<path clip-path="url(#SVGID_4_)" fill="#FFFFFF" d="M13.5,17C8.8,17,5,20.8,5,25.5c0,4.7,3.8,8.5,8.5,8.5c4.7,0,8.5-3.8,8.5-8.5
			C22,20.8,18.2,17,13.5,17 M16.8,31.1c-1,0.6-2.1,0.9-3.3,0.9C9.9,32,7,29.1,7,25.5c0-1.2,0.3-2.3,0.9-3.3l0.3-0.6l9.1,9.1
			L16.8,31.1z M19.2,28.7l-0.3,0.6l-9.1-9.1l0.6-0.3c1-0.6,2.1-0.9,3.3-0.9c3.6,0,6.5,2.9,6.5,6.5C20.1,26.6,19.8,27.7,19.2,28.7"/>
	</g>
	<polygon clip-path="url(#SVGID_2_)" fill="#FFFFFF" points="4,18.4 4,2.4 15.6,14 8.6,14 8.4,14.1 	"/>
	<polygon clip-path="url(#SVGID_2_)" points="5,4.8 5,16 8,13.1 8.1,13 13.2,13 	"/>
</g>
</svg>
